docs/assets/img/cloud-mobile.svg

<svg width="289" height="233" viewBox="0 0 289 233" fill="none" xmlns="http://www.w3.org/2000/svg">
<path d="M0.675597 183.095C5.4418 208.153 34.0756 224.595 64.6775 219.892C79.8849 217.555 92.7214 210.373 101.225 200.73C100.797 203.053 100.761 205.403 101.195 207.681C104.693 226.074 135.977 236.638 170.991 231.258C206.005 225.878 224.608 206.573 221.109 188.18C221.061 187.927 221.013 187.674 220.965 187.421C226.594 192.635 234.952 195.432 243.588 194.105C257.481 191.97 266.82 180.115 264.445 167.627C263.851 164.506 262.632 161.654 260.82 159.24C278.429 154.798 290.335 142.722 288.04 130.656C286.323 121.629 277.149 115.049 265.098 112.646C273.803 102.538 277.896 90.533 275.601 78.4679C270.418 51.2155 241.391 33.9998 202.058 40.0435C182.909 42.9859 166.631 50.8711 155.485 61.354C138.298 55.3116 115.227 53.3856 90.8204 57.1358C86.3147 57.8281 81.8409 58.6893 77.587 59.6904C77.5387 59.4369 77.6002 59.2541 77.5524 59.0006C76.5893 53.9385 68.7785 50.9704 60.0487 52.3119C51.3188 53.6534 45.0484 58.7847 46.0116 63.8473C46.4123 65.9566 48.0956 67.6949 50.4661 68.9811C25.6101 80.5288 10.5187 97.6966 13.664 114.234C15.2046 122.333 20.8571 129.193 29.4149 134.565C9.13787 144.28 -3.07963 163.351 0.675597 183.095Z" fill="white"/>
<path d="M70.1762 21.8875C67.3688 24.5908 68.2168 30.7312 72.0858 35.6631C75.9554 40.5942 81.3264 42.3801 84.1342 39.677C86.9418 36.9738 86.0941 30.8334 82.2247 25.9016C78.3552 20.9699 72.9843 19.1844 70.1762 21.8875Z" fill="white"/>
<path d="M87.4333 3.57473C85.2199 0.753756 82.0987 -0.25568 80.4619 1.32016C78.8252 2.89594 79.2926 6.46019 81.506 9.28116C83.7194 12.1021 86.8405 13.1116 88.4773 11.5358C90.1141 9.95996 89.6466 6.3957 87.4333 3.57473Z" fill="white"/>
</svg>

<svg width="289" height="233" fill="none" xmlns="http://www.w3.org/2000/svg"><path d="M.676 183.095c4.766 25.058 33.4 41.5 64.001 36.797 15.208-2.337 28.044-9.519 36.548-19.162-.428 2.323-.464 4.673-.03 6.951 3.498 18.393 34.782 28.957 69.796 23.577 35.014-5.38 53.617-24.685 50.118-43.078l-.144-.759c5.629 5.214 13.987 8.011 22.623 6.684 13.893-2.135 23.232-13.99 20.857-26.478-.594-3.121-1.813-5.973-3.625-8.387 17.609-4.442 29.515-16.518 27.22-28.584-1.717-9.027-10.891-15.607-22.942-18.01 8.705-10.108 12.798-22.113 10.503-34.178-5.183-27.253-34.21-44.468-73.543-38.425-19.149 2.943-35.427 10.828-46.573 21.311-17.187-6.042-40.258-7.968-64.665-4.218-4.505.692-8.98 1.553-13.233 2.554-.048-.253.013-.436-.035-.69-.963-5.062-8.774-8.03-17.503-6.688-8.73 1.341-15 6.473-14.037 11.535.4 2.11 2.084 3.848 4.454 5.134C25.61 80.53 10.52 97.697 13.664 114.234c1.54 8.099 7.193 14.959 15.75 20.331C9.139 144.28-3.08 163.351.677 183.095zm69.5-161.208c-2.807 2.704-1.96 8.844 1.91 13.776 3.87 4.931 9.24 6.717 12.048 4.014 2.808-2.703 1.96-8.844-1.91-13.775-3.869-4.932-9.24-6.718-12.048-4.015zM87.433 3.575C85.22.754 82.1-.255 80.462 1.32c-1.637 1.576-1.17 5.14 1.044 7.961 2.213 2.821 5.335 3.83 6.971 2.255 1.637-1.576 1.17-5.14-1.044-7.961z" fill="#fff"/></svg>
